packages/sources/icons/src/vitamix/thumb-down-line.svg

<svg width="16" height="16" viewBox="0 0 16 16" fill="none" xmlns="http://www.w3.org/2000/svg">
<path fill-rule="evenodd" clip-rule="evenodd" d="M6.26667 10.6667H2C1.26362 10.6667 0.666665 10.0697 0.666665 9.33333V7.93067C0.666487 7.75643 0.700461 7.58384 0.766667 7.42267L2.83067 2.41333C2.93331 2.16349 3.17656 2.00027 3.44667 2H14.6667C15.0349 2 15.3333 2.29848 15.3333 2.66667V9.33333C15.3333 9.70152 15.0349 10 14.6667 10H12.3453C12.1287 9.99994 11.9256 10.1051 11.8007 10.282L8.16533 15.4327C8.07037 15.5672 7.89134 15.6123 7.744 15.5387L6.53467 14.9333C5.83344 14.5828 5.47126 13.791 5.66467 13.0313L6.26667 10.6667ZM11.3333 8.94133V3.33333H3.89333L2 7.93067V9.33333H6.26667C6.67817 9.33339 7.06659 9.52346 7.31915 9.84834C7.57171 10.1732 7.6601 10.5965 7.55867 10.9953L6.95667 13.3607C6.91784 13.5127 6.9903 13.6712 7.13067 13.7413L7.57133 13.9613L10.7113 9.51333C10.878 9.27733 11.0913 9.084 11.3333 8.94133ZM14 8.66667H12.6667V3.33333H14V8.66667Z" fill="#001018"/>
</svg>

<svg width="16" height="16" fill="none" xmlns="http://www.w3.org/2000/svg"><path fill-rule="evenodd" clip-rule="evenodd" d="M6.267 10.667H2A1.333 1.333 0 0 1 .667 9.333V7.931c0-.175.033-.347.1-.508l2.064-5.01A.667.667 0 0 1 3.447 2h11.22c.368 0 .666.298.666.667v6.666a.667.667 0 0 1-.666.667h-2.322a.666.666 0 0 0-.544.282l-3.636 5.15a.333.333 0 0 1-.421.107l-1.21-.606a1.667 1.667 0 0 1-.87-1.902l.603-2.364zm5.066-1.726V3.333h-7.44L2 7.931v1.402h4.267a1.333 1.333 0 0 1 1.292 1.662l-.602 2.366a.333.333 0 0 0 .174.38l.44.22 3.14-4.448c.167-.236.38-.429.622-.572zM14 8.667h-1.333V3.333H14v5.334z" fill="#001018"/></svg>
